src/16/actions/document-edit-encrypt.svg

<svg xmlns="http://www.w3.org/2000/svg" width="16" height="16" viewBox="0 0 16 16">
 <defs>
  <style id="current-color-scheme" type="text/css">
   .ColorScheme-Text { color:#565656; } .ColorScheme-Highlight { color:#5294e2; }
  </style>
 </defs>
 <path style="fill:currentColor" class="ColorScheme-Text" d="M 3 1.9902344 C 3 1.9902344 2 1.9902344 2 2.9902344 L 2 9 L 4 9 L 4 3.9941406 L 12 3.9941406 L 12 8.9804688 L 14 8.9804688 L 14 2.9902344 C 14 1.9902344 13 1.9902344 13 1.9902344 L 3 1.9902344 z M 4 10 L 4 12 L 6 12 L 6 10 L 4 10 z M 10 10 L 10 12 L 12 12 L 12 10 L 10 10 z M 2 13 L 2 15 L 4 15 L 4 13 L 2 13 z M 7 13 L 7 15 L 9 15 L 9 13 L 7 13 z M 12 13 L 12 15 L 14 15 L 14 13 L 12 13 z"/>
</svg>

<svg xmlns="http://www.w3.org/2000/svg" width="16" height="16"><defs><style id="current-color-scheme" type="text/css"></style></defs><path d="M3 1.99s-1 0-1 1V9h2V3.994h8V8.98h2V2.99c0-1-1-1-1-1H3zM4 10v2h2v-2H4zm6 0v2h2v-2h-2zm-8 3v2h2v-2H2zm5 0v2h2v-2H7zm5 0v2h2v-2h-2z" fill="currentColor" color="#565656"/></svg>
